resources/svg/pie-chart-box-line.svg

<svg fill="currentColor" viewBox="0 0 24 24" xmlns="http://www.w3.org/2000/svg"><path d="M3 3H21C21.5523 3 22 3.44772 22 4V20C22 20.5523 21.5523 21 21 21H3C2.44772 21 2 20.5523 2 20V4C2 3.44772 2.44772 3 3 3ZM4 5V19H20V5H4ZM16.9 13C16.4367 15.2822 14.419 17 12 17C9.23858 17 7 14.7614 7 12C7 9.58104 8.71776 7.56329 11 7.10002V13H16.9ZM16.9 11H13V7.10002C14.9591 7.4977 16.5023 9.04087 16.9 11Z"/></svg>

<svg xmlns="http://www.w3.org/2000/svg" viewBox="0 0 24 24" fill="currentColor">
    <g>
        <path fill="none" d="M0 0h24v24H0z"/>
        <path d="M3 3h18a1 1 0 0 1 1 1v16a1 1 0 0 1-1 1H3a1 1 0 0 1-1-1V4a1 1 0 0 1 1-1zm1 2v14h16V5H4zm12.9 8A5.002 5.002 0 0 1 7 12a5.002 5.002 0 0 1 4-4.9V13h5.9zm0-2H13V7.1a5.006 5.006 0 0 1 3.9 3.9z"/>
    </g>
</svg>
